X:54
T:Scholar, The
M:C|
K:D
A|:dfaf gfeg|fdAF DFA=c|BGFG EFGg|fgec dcBA|\
dfaf gfeg|fdAF DFA=c|BGFG EFGg|1 fgec d4:|2 fgec d2 fg|:\
~a3f dfaf|dfaf bagf|~g3e cege|cege agfg|\
~a3f dfaf|dfaf bagf|g2gf gbag|1 fgec d2 fg:| fgec d4||
